X:63
T:Anglais efter Jöns Persson
T:(SvL Skåne nr. 63)
R:Anglais
Z:Patrik Månsson, 2009-01-12
O:Roalöv, Skåne
S:efter Jöns Persson
B:Svenska Låtar Skåne
M:C
L:1/8
K:D
|: dAFA defe | dcBA G2 F2 | E2 (ba) gfge | (de)fe d2 z2 :|
|: agaf dAdf | gfge cAce | agaf dAdf | (ge)ce d2 z2 :|

